X: 414
T:Micho Russell's
T:Doonagore
M:4/4
L:1/8
R:Reel
Z:Andrew Pickering
K:G
GF|DG G2 FGAc|BG G2 ABcA|d2 cA BG G2|AdcA GFEF|
DG G2 FGAc|BG G2 ABcA|d2 cA BG G2|AdcA G2:|
ef|g2 ge fd de|fdge fd de|g2 ge fdd^c|defd g2 gf|
gbag fddc|B2 BG ABcA|d2 cA BG G2|AdcA G2:|

